images/038-cogwheel-1.svg

<svg width="79" height="79" viewBox="0 0 79 79" fill="none" xmlns="http://www.w3.org/2000/svg">
<path d="M69.6309 31.4921C67.1444 31.4921 64.8264 32.711 63.319 34.5626H51.9732C51.4172 32.1513 50.484 29.8429 49.2079 27.7228L52.4835 23.7811C52.6542 23.5762 52.7423 23.3149 52.7305 23.0484C52.7188 22.782 52.6081 22.5295 52.42 22.3403L46.86 16.7126C46.67 16.5206 46.4149 16.4068 46.1451 16.3935C45.8753 16.3803 45.6103 16.4687 45.4025 16.6412L41.44 19.9234C39.5182 18.7566 37.4361 17.8774 35.2598 17.3136L34.7639 12.2038C34.7364 11.9404 34.6104 11.6971 34.411 11.5227C34.2116 11.3484 33.9537 11.2559 33.689 11.2638H25.7059C25.4411 11.2558 25.1831 11.3483 24.9836 11.5227C24.7842 11.6971 24.6581 11.9404 24.6307 12.2039L24.1348 17.3317C21.9543 17.8831 19.8688 18.758 17.9475 19.9274L13.9921 16.6475C13.7852 16.4756 13.5217 16.3872 13.253 16.3993C12.9843 16.4115 12.7299 16.5235 12.5394 16.7134L6.90833 22.3432C6.71827 22.5334 6.60597 22.7876 6.59339 23.0562C6.58081 23.3247 6.66884 23.5884 6.84029 23.7955L10.1219 27.7581C8.95475 29.6797 8.07529 31.7619 7.51148 33.9383L2.36522 34.4342C2.09808 34.46 1.85008 34.5842 1.66955 34.7828C1.48902 34.9814 1.38889 35.2401 1.38867 35.5084V43.4918C1.38866 43.7603 1.48866 44.0192 1.66918 44.2179C1.8497 44.4167 2.09779 44.5411 2.36506 44.5669L7.51102 45.0628C8.06539 47.2438 8.94336 49.3293 10.1157 51.2501L6.84029 55.2054C6.66871 55.4125 6.5806 55.6762 6.59318 55.9449C6.60576 56.2136 6.71815 56.4679 6.90833 56.6581L12.5394 62.2898C12.7296 62.48 12.9838 62.5924 13.2525 62.6051C13.5212 62.6177 13.7849 62.5297 13.9921 62.3581L17.9544 59.0765C19.8761 60.2437 21.9583 61.1232 24.1348 61.6869L24.6307 66.7971C24.6583 67.0604 24.7845 67.3036 24.9839 67.4778C25.1833 67.652 25.4412 67.7444 25.7059 67.7364H33.689C33.9538 67.7444 34.2118 67.6519 34.4112 67.4775C34.6107 67.3032 34.7367 67.0598 34.7642 66.7963L35.2601 61.6686C37.4406 61.1171 39.5261 60.2422 41.4474 59.0728L45.4026 62.3527C45.6095 62.5246 45.873 62.6131 46.1417 62.6009C46.4104 62.5888 46.6648 62.4768 46.8553 62.287L52.4872 56.657C52.6772 56.4668 52.7895 56.2126 52.8021 55.944C52.8147 55.6755 52.7267 55.4119 52.5552 55.2048L49.2738 51.2702C50.5549 49.1545 51.4901 46.848 52.0443 44.4376H63.3188C64.8263 46.2892 67.1443 47.5081 69.6308 47.5081C71.7396 47.4854 73.7543 46.6318 75.2376 45.1326C76.7208 43.6333 77.5527 41.6095 77.5527 39.5006C77.5527 37.3916 76.7208 35.3678 75.2376 33.8686C73.7543 32.3693 71.7396 31.5157 69.6308 31.493L69.6309 31.4921ZM47.0374 50.7741C46.913 50.9646 46.8531 51.19 46.8667 51.4171C46.8803 51.6442 46.9667 51.8608 47.113 52.035L50.2638 55.8327L46.0232 60.0697L42.2187 56.9173C42.0398 56.769 41.8179 56.6823 41.5859 56.6701C41.3538 56.6579 41.124 56.7209 40.9306 56.8497C38.8312 58.2387 36.4915 59.2248 34.0311 59.7574C33.8099 59.7979 33.6077 59.909 33.455 60.0741C33.3023 60.2391 33.2073 60.4493 33.1842 60.673L32.708 65.5763H26.6867L26.2107 60.6727C26.1882 60.4469 26.0937 60.2343 25.9413 60.0662C25.7889 59.8981 25.5865 59.7834 25.3639 59.7389C22.9031 59.1947 20.5612 58.2095 18.4514 56.8309C18.2581 56.707 18.0302 56.648 17.8011 56.6625C17.5719 56.6769 17.3533 56.764 17.1769 56.9111L13.3715 60.064L9.13129 55.8247L12.282 52.0208C12.4301 51.8419 12.5166 51.62 12.5286 51.388C12.5406 51.156 12.4775 50.9264 12.3487 50.7331C10.9595 48.6337 9.97342 46.2939 9.44081 43.8335C9.3924 43.6097 9.27409 43.407 9.10296 43.2548C8.93184 43.1026 8.71676 43.0087 8.4888 42.9868L3.54883 42.5109V36.4893L8.48864 36.013C8.71661 35.991 8.93168 35.8971 9.10281 35.7449C9.27393 35.5927 9.39224 35.3901 9.44065 35.1662C9.98771 32.705 10.9757 30.3631 12.3569 28.2537C12.4813 28.0608 12.5411 27.8333 12.5275 27.6042C12.5139 27.375 12.4276 27.1562 12.2813 26.9794L9.13129 23.1743L13.3715 18.9339L17.1762 22.0845C17.3551 22.2327 17.5771 22.3192 17.8091 22.3313C18.0412 22.3433 18.2709 22.2802 18.4642 22.1513C20.5637 20.7621 22.9035 19.776 25.3639 19.2432C25.5851 19.2027 25.7872 19.0916 25.9399 18.9265C26.0926 18.7613 26.1876 18.5512 26.2107 18.3275L26.6867 13.4239H32.708L33.1842 18.3275C33.2067 18.5533 33.3012 18.7659 33.4536 18.9341C33.6061 19.1022 33.8085 19.2169 34.0311 19.2613C36.4918 19.8056 38.8337 20.7908 40.9436 22.1692C41.137 22.293 41.3648 22.352 41.594 22.3376C41.8232 22.3232 42.0418 22.2361 42.2181 22.0889L46.0178 18.9402L50.1959 23.1706L47.0411 26.9794C46.8931 27.153 46.8064 27.3705 46.7944 27.5983C46.7823 27.8261 46.8455 28.0515 46.9743 28.2398C48.241 30.1811 49.1807 32.3171 49.7558 34.5626H45.5898C44.5457 31.1649 42.4376 28.1925 39.5763 26.0837C36.7149 23.9748 33.2517 22.8411 29.6972 22.8496C20.5311 22.8496 13.0739 30.3204 13.0739 39.4865C13.0739 48.6527 20.5311 56.1438 29.6972 56.1438C33.2511 56.1537 36.7141 55.0214 39.5755 52.9137C42.437 50.806 44.5454 47.8346 45.5898 44.4376H49.8271C49.249 46.6878 48.3067 48.8282 47.0374 50.7741ZM19.0479 35.4216C19.1481 35.536 19.2707 35.6284 19.4083 35.6932C19.5458 35.7579 19.6953 35.7935 19.8472 35.7978H19.8511L25.3169 35.7555L27.9836 39.5251L25.5053 43.2032H19.8534C19.6672 43.2103 19.4857 43.2637 19.3253 43.3585C19.165 43.4533 19.0307 43.5866 18.9348 43.7464C18.8389 43.9061 18.7843 44.0872 18.776 44.2733C18.7676 44.4595 18.8058 44.6447 18.887 44.8124C19.8707 46.8087 21.3936 48.4898 23.2834 49.6653C25.1731 50.8408 27.3543 51.4638 29.5798 51.4637C34.2848 51.4637 38.5742 48.6036 40.4826 44.4376H43.3144C42.157 47.6403 39.9071 50.3322 36.9606 52.0397C34.0142 53.7472 30.56 54.3608 27.2057 53.7726C23.8515 53.1844 20.8121 51.4321 18.6224 48.824C16.4327 46.2159 15.233 42.9191 15.2343 39.5137C15.2343 31.5389 21.7225 25.0166 29.6975 25.0166C32.6756 25.0047 35.5842 25.9163 38.0228 27.6259C40.4614 29.3354 42.3101 31.7589 43.3144 34.5626H40.4826C38.5742 30.3966 34.2848 27.5287 29.5787 27.5287C27.3508 27.5263 25.1669 28.1489 23.2752 29.3259C21.3836 30.5028 19.86 32.1869 18.8778 34.1866C18.7811 34.3861 18.7456 34.6097 18.7758 34.8294C18.806 35.049 18.9004 35.2548 19.0473 35.4208L19.0479 35.4216ZM69.6316 45.3211C68.6709 45.3272 67.7239 45.094 66.8759 44.6425C66.028 44.1911 65.3058 43.5355 64.7746 42.7351C64.6746 42.5895 64.5397 42.4713 64.3823 42.3913C64.2248 42.3114 64.0497 42.2722 63.8732 42.2775H51.0187H51.0099C51.0068 42.2775 51.0041 42.2775 51.001 42.2775H39.7592C39.5416 42.2719 39.3275 42.3338 39.1464 42.4546C38.9653 42.5753 38.8259 42.7491 38.7473 42.9522C38.0415 44.8116 36.7861 46.4118 35.1482 47.54C33.5102 48.6681 31.5675 49.2705 29.5787 49.2671C28.0646 49.2753 26.57 48.926 25.2163 48.2477C23.8626 47.5694 22.6882 46.5812 21.7884 45.3634H26.083C26.2585 45.3694 26.4327 45.3313 26.5897 45.2526C26.7467 45.174 26.8816 45.0573 26.9819 44.9132L30.1896 40.1124C30.31 39.9329 30.3732 39.7212 30.3707 39.5051C30.3682 39.289 30.3001 39.0788 30.1755 38.9022L26.7625 34.0604C26.6608 33.9228 26.527 33.8123 26.3727 33.7385C26.2184 33.6646 26.0483 33.6297 25.8774 33.6368H25.8736L21.7805 33.618C22.8362 32.2222 24.2466 31.1348 25.865 30.469C27.4835 29.8031 29.2508 29.5832 30.9831 29.8321C32.7153 30.081 34.3492 30.7896 35.7147 31.8842C37.0802 32.9788 38.1274 34.4193 38.7473 36.0559C38.8263 36.2581 38.966 36.4308 39.1473 36.5502C39.3285 36.6696 39.5423 36.7299 39.7592 36.7228H50.9303C50.9334 36.7228 50.9362 36.7228 50.9393 36.7228C50.9423 36.7228 50.9451 36.7228 50.9481 36.7228H63.8738C64.0502 36.728 64.225 36.6889 64.3824 36.6091C64.5398 36.5293 64.6746 36.4113 64.7746 36.2659C65.3324 35.4277 66.0978 34.7483 66.9963 34.2941C67.8948 33.8398 68.8957 33.6261 69.9014 33.6738C70.9071 33.7215 71.8833 34.029 72.7347 34.5663C73.5862 35.1036 74.2839 35.8523 74.7598 36.7396C75.2357 37.6268 75.4736 38.6222 75.4503 39.6287C75.427 40.6353 75.1432 41.6186 74.6267 42.4829C74.1102 43.3471 73.3786 44.0627 72.5032 44.56C71.6277 45.0573 70.6384 45.3193 69.6316 45.3203V45.3211Z" fill="#8A1A10"/>
<path d="M69.631 36.1198C68.9625 36.1198 68.309 36.3181 67.7531 36.6895C67.1973 37.0609 66.764 37.5889 66.5082 38.2065C66.2524 38.8242 66.1855 39.5038 66.3159 40.1595C66.4464 40.8152 66.7683 41.4174 67.2411 41.8901C67.7138 42.3629 68.3161 42.6848 68.9718 42.8152C69.6275 42.9456 70.3071 42.8787 70.9247 42.6228C71.5424 42.367 72.0703 41.9337 72.4417 41.3779C72.8131 40.822 73.0114 40.1685 73.0114 39.4999C73.0123 39.0558 72.9255 38.6158 72.756 38.2052C72.5864 37.7947 72.3375 37.4217 72.0234 37.1076C71.7093 36.7935 71.3363 36.5446 70.9257 36.3751C70.5152 36.2055 70.0752 36.1188 69.631 36.1198ZM69.631 40.72C69.3897 40.7199 69.1539 40.6484 68.9532 40.5143C68.7526 40.3802 68.5963 40.1897 68.504 39.9667C68.4116 39.7438 68.3875 39.4985 68.4346 39.2618C68.4817 39.0252 68.5979 38.8078 68.7685 38.6372C68.9392 38.4666 69.1566 38.3504 69.3932 38.3033C69.6299 38.2563 69.8752 38.2805 70.0981 38.3728C70.321 38.4651 70.5115 38.6215 70.6456 38.8221C70.7796 39.0228 70.8512 39.2587 70.8512 39.4999C70.8513 39.6602 70.8199 39.8189 70.7586 39.967C70.6973 40.1151 70.6075 40.2497 70.4941 40.363C70.3808 40.4763 70.2462 40.5662 70.0981 40.6274C69.95 40.6887 69.7913 40.7201 69.631 40.72Z" fill="#8A1A10"/>
</svg>

<svg width="79" height="79" fill="none" xmlns="http://www.w3.org/2000/svg"><path d="M69.63 31.492c-2.486 0-4.804 1.219-6.311 3.07H51.973a23.504 23.504 0 00-2.765-6.84l3.276-3.94a1.07 1.07 0 00-.064-1.442l-5.56-5.627a1.08 1.08 0 00-1.457-.072l-3.963 3.282a23.044 23.044 0 00-6.18-2.61l-.496-5.11a1.05 1.05 0 00-1.075-.94h-7.983a1.05 1.05 0 00-1.075.94l-.496 5.129a22.519 22.519 0 00-6.188 2.595l-3.955-3.28a1.08 1.08 0 00-1.453.066l-5.63 5.63a1.08 1.08 0 00-.069 1.453l3.282 3.962a23.03 23.03 0 00-2.61 6.18l-5.147.496a1.08 1.08 0 00-.976 1.074v7.984a1.08 1.08 0 00.976 1.075l5.146.496a22.53 22.53 0 002.605 6.187L6.84 55.205a1.08 1.08 0 00.068 1.453l5.631 5.632a1.08 1.08 0 001.453.068l3.962-3.281a23.027 23.027 0 006.18 2.61l.497 5.11a1.05 1.05 0 001.075.94h7.983a1.049 1.049 0 001.075-.94l.496-5.128a22.522 22.522 0 006.187-2.596l3.956 3.28a1.08 1.08 0 001.452-.066l5.632-5.63a1.08 1.08 0 00.068-1.452l-3.281-3.935a23.249 23.249 0 002.77-6.832H63.32c1.507 1.851 3.825 3.07 6.312 3.07a8.008 8.008 0 000-16.015zM47.038 50.774a1.06 1.06 0 00.076 1.261l3.15 3.798-4.24 4.237-3.804-3.153a1.08 1.08 0 00-1.288-.067 20.28 20.28 0 01-6.9 2.907 1.04 1.04 0 00-.847.916l-.476 4.903h-6.021l-.476-4.903a1.06 1.06 0 00-.847-.934 20.879 20.879 0 01-6.913-2.908 1.079 1.079 0 00-1.274.08l-3.806 3.153-4.24-4.24 3.151-3.803a1.08 1.08 0 00.067-1.288 20.277 20.277 0 01-2.908-6.9 1.08 1.08 0 00-.952-.846l-4.94-.476v-6.022l4.94-.476a1.08 1.08 0 00.952-.847 20.895 20.895 0 012.916-6.912 1.08 1.08 0 00-.076-1.275l-3.15-3.805 4.24-4.24 3.805 3.15a1.08 1.08 0 001.288.067 20.3 20.3 0 016.9-2.908 1.04 1.04 0 00.847-.915l.476-4.904h6.021l.476 4.904a1.06 1.06 0 00.847.933 20.92 20.92 0 016.913 2.908 1.08 1.08 0 001.274-.08l3.8-3.149 4.178 4.23-3.155 3.81a1.038 1.038 0 00-.067 1.26 21.192 21.192 0 012.782 6.323H45.59A16.585 16.585 0 0029.697 22.85c-9.166 0-16.623 7.47-16.623 16.636 0 9.167 7.457 16.658 16.623 16.658A16.578 16.578 0 0045.59 44.438h4.237a21.298 21.298 0 01-2.79 6.336zm-27.99-15.352a1.104 1.104 0 00.8.376h.004l5.466-.043 2.667 3.77-2.479 3.678h-5.652a1.122 1.122 0 00-.966 1.61 11.92 11.92 0 0010.693 6.65c4.705 0 8.994-2.86 10.903-7.025h2.831a14.47 14.47 0 01-28.08-4.924c0-7.975 6.489-14.497 14.464-14.497a14.403 14.403 0 0113.616 9.546h-2.831c-1.909-4.166-6.198-7.034-10.904-7.034a11.908 11.908 0 00-10.701 6.658 1.123 1.123 0 00.17 1.234zm50.585 9.9a5.785 5.785 0 01-4.857-2.587 1.057 1.057 0 00-.902-.457H39.76a1.056 1.056 0 00-1.012.674 9.79 9.79 0 01-9.168 6.315 9.622 9.622 0 01-7.79-3.904h4.294a1.05 1.05 0 00.899-.45l3.208-4.8a1.068 1.068 0 00-.015-1.21l-3.413-4.843a1.046 1.046 0 00-.885-.423h-.003l-4.093-.019a9.792 9.792 0 0116.966 2.438 1.049 1.049 0 001.012.667h24.115a1.056 1.056 0 00.9-.457 5.826 5.826 0 114.858 9.054v.001z" fill="#8A1A10"/><path d="M69.631 36.12a3.38 3.38 0 103.125 2.085 3.374 3.374 0 00-3.125-2.085zm0 4.6a1.22 1.22 0 110-2.441 1.22 1.22 0 010 2.441z" fill="#8A1A10"/></svg>
